!!!!SEGMENT: pl-kozmzk--mzk-m-159--003_walczynski-franciszek--praeludia-organi-op-5-andante.krn
!!!cenid: 18xx:2746
!!!COM: Walczyński, Franciszek
!!!COM-rismid: pe30021989
!!!CDT: ~1852-1937
!!!CNT: Polish
!!!GTL: Praeludia organi op. 5
!!!OTL: 3. Andante
!!!PDT: 1894
!!!AGN: Secular; Prelude
!!!SMS-siglum: PL-KOZmzk
!!!SMS-shelfmark: mzk/m/159
!!!SMS-shelfwork: 003 G
!!!SMS-variant:
!!!SMS-altvar:
!!!NIFC-rismid: 1001116611
!!!URL-scan: https://repozytorium.nifc.pl/islandora/object/pl-kozmzk%3A2265/datastream/PDF/view
!!!ONB-nifc: UWAGA: numeracja plików zgodna z numeracją źrodłową
!!!OMD: 3. Andante
**kern	**kern	**dynam
*part2	*part1	*part1
*staff2	*staff1	*
*Iempty	*Iempty	*
*I"	*I"	*
*clefF4	*clefG2	*
*k[f#]	*k[f#]	*
*G:	*G:	*
*M4/4	*M4/4	*
*met(c)	*met(c)	*
=1	=1	=1
*^	*^	*
!	!	!	!	!LO:DY:b=2
1r	(4G\	1r	1r	p
.	4F#\	.	.	.
.	4G\	.	.	.
.	4E\	.	.	.
=2	=2	=2	=2	=2
1r	2D\	1r	1r	.
.	2C\	.	.	.
=3	=3	=3	=3	=3
(4g/	4BB\)	1r	1r	.
4f#/	(8D\L	.	.	.
.	8C\J	.	.	.
4g/	4BB\	.	.	.
4e/	4C\	.	.	.
=4	=4	=4	=4	=4
2d/	4D\	1r	1r	.
.	4A\	.	.	.
2c/	4E\	.	.	.
.	4F#\	.	.	.
=5	=5	=5	=5	=5
4B/)	2G\	1r	1r	.
(4c/	.	.	.	.
4d/	2F#\)	.	.	.
4A/)	.	.	.	.
=6	=6	=6	=6	=6
(2.B/	(4E\	1r	(4g\	p
.	4D#X\	.	4f#\	.
.	4E\	.	4g\	.
4c/)	4C\	.	4e\	.
=7	=7	=7	=7	=7
4c/	1Dn\	1r	2d\	.
4B/	.	.	.	.
4A/	.	.	2c\	.
4F#/	.	.	.	.
=8	=8	=8	=8	=8
4G/	4G\)	1r	4B\)	.
(4A/	4F#\	.	(4d\	.
8G/L	(4.E^\	.	8e\L	.
8A/	.	.	8f#\	.
8B/	.	.	8g\	.
8d/J)	8F#\)	.	8a\J)	.
=9	=9	=9	=9	=9
(2.d/	(4G\	(4gg/	4b\	f
.	4A\	4ff#/	4cc\	.
.	4B\	4gg/	4dd\	.
4c/	4c\	4ee/	4cc\	.
=10	=10	=10	=10	=10
2d/	4B\	2dd/	2.g\	.
.	4B-X\	.	.	.
4e/	2A\)	2cc/)	.	.
4d/)	.	.	4f#\	.
=11	=11	=11	=11	=11
(2d/	(4G\	(2b/	[1g\	.
.	4F#\	.	.	.
2B/	4Fn\	2dd/	.	.
.	8G\L	.	.	.
.	8F\J	.	.	.
=12	=12	=12	=12	=12
4c/	2.E\	2cc/	2g\]	.
4e/	.	.	.	.
4d/	.	4b/	4g#X\	.
4c/)	4A\)	4a/	4e\	.
=13	=13	=13	=13	=13
!	!	!	!	!LO:HP:a
(4B/	1D\	2gn/	2.d\	>
4B-X/	.	.	.	.
2A/)	.	2f#/)	.	.
.	.	.	4c\	]
=14	=14	=14	=14	=14
!LO:TX:b:i:t=Ped.	!	!	!	!LO:DY:rj
(4G/	[1GG\	[1g/	(2.B\	p
4F#/	.	.	.	.
4G/	.	.	.	.
!	!	!	!	!LO:HP:a
4E/	.	.	4c\	<
=15	=15	=15	=15	=15
4D/	1GG\_	1g/_	4B\	.
!LO:TX:b:i:t=rit.	!	!	!	!LO:HP:a
4C#X/	.	.	4A#X\	[ >
4D/	.	.	4B\	.
4Cn/	.	.	4An\	.
=16	=16	=16	=16	=16
!	!	!	!	!LO:DY:rj
1BB/)	1GG\;]	1g/;]	1G\)	] pp
*v	*v	*	*	*
*	*v	*v	*
==	==	==
*-	*-	*-
!!!system-decoration: {(s1,s2)}
!!!EED: Andrzej Borzym
!!!EST: 2021-08-08
!!!AIN: 2 empty
!!!ENC: Krzysztof Stępień
!!!END: 2021-07-26
